svgs/sharp-regular/table-picnic.svg

<svg xmlns="http://www.w3.org/2000/svg" viewBox="0 0 512 512"><!--! Font Awesome Pro 6.6.0 by @fontawesome - https://fontawesome.com License - https://fontawesome.com/license (Commercial License) Copyright 2024 Fonticons, Inc. --><path d="M64 64l24 0 336 0 24 0 0 48-24 0-72.4 0 48.1 128 88.3 0 24 0 0 48-24 0-70.2 0-51.3 0-221 0-51.3 0L24 288 0 288s0 0 0 0l0-48 24 0 88.3 0 48.1-128L88 112l-24 0 0-48zM378.5 320l51.3 0 48.1 128-51.3 0L378.5 320zM85.4 448l-51.3 0L82.2 320l51.3 0L85.4 448zM211.6 112L163.5 240l184.9 0L300.4 112l-88.7 0z"/></svg>

<svg xmlns="http://www.w3.org/2000/svg" viewBox="0 0 512 512"><!--! Font Awesome Pro 6.4.2 by @fontawesome - https://fontawesome.com License - https://fontawesome.com/license (Commercial License) Copyright 2023 Fonticons, Inc. --><path d="M64 64H88 424h24v48H424 351.6l48.1 128H488h24v48H488 417.8 366.5h-221H94.2 24L0 288l0 0V240H24h88.3l48.1-128H88 64V64zM378.5 320h51.3l48.1 128H426.6L378.5 320zM85.4 448H34.1L82.2 320h51.3L85.4 448zM211.6 112L163.5 240H348.5L300.4 112H211.6z"/></svg>
